X: 102
T:Woodlands Walk
T:for Mendocino Redwood
C:Jonathan Jensen
M:6/8
L:1/8
K:F
M:6/8
L:1/8
def|"Dm"d2d dcA|d2d dcA|"F"cAF "C"GFE|"Dm"FED def|
d2d dcA|d2d dcA|"F"cAF "C"EDC|"Dm"D3 :|
DEF|"C"G2G "F"A2A |"C"G2G EFG| "F"A2A "Bb"B2B|"F" A2A "Dm"DEF|
"C"G2G "F"A2A|"C"G2G c3|"Dm"FED "Am"EDC|"Dm"D3 :|

